newicons/cp.svg

<?xml version="1.0" encoding="UTF-8" standalone="no"?>
<svg
   id="Layer_1"
   data-name="Layer 1"
   version="1.1"
   viewBox="0 0 48 48"
   xml:space="preserve"
   xmlns="http://www.w3.org/2000/svg"
   xmlns:svg="http://www.w3.org/2000/svg"><defs
     id="defs1"><style
       id="style1">.cls-1 { fill: none;        stroke: #fff;        stroke-linecap: round;        stroke-linejoin: round; }
</style></defs><path
     id="path1"
     style=""
     d="M 16.214436,5.5 V 6.8898521 H 13.673987 L 12.247159,8.3188545 V 34.306259 l 1.233249,1.233249 H 34.519591 L 35.75284,34.306259 V 8.3188545 L 34.326013,6.8898521 h -2.54045 V 5.5 Z m -1.013569,7.880178 H 32.799133 V 23.981333 H 15.200867 Z"
     class="cls-1" /><path
     style=""
     d="m 20.733889,28.414102 h -5.388153 v 3.534165 h 5.388153 z"
     id="path6"
     class="cls-1" /><path
     style=""
     d="m 27.265456,28.414102 h 5.388153 v 3.534165 h -5.388153 z"
     id="rect2"
     class="cls-1" /><path
     style=""
     d="M 17.441675,37.48421 15.544749,42.5 h 3.554185 l 1.896926,-5.01579 z"
     id="path7"
     class="cls-1" /><path
     style=""
     d="M 30.55767,37.48421 32.454596,42.5 H 28.90041 l -1.896925,-5.01579 z"
     id="path2"
     class="cls-1" /><path
     style=""
     d="M 29.909718,8.1336604 H 18.089626"
     id="path3"
     class="cls-1" /></svg>

<?xml version="1.0" encoding="UTF-8"?><svg id="b" xmlns="http://www.w3.org/2000/svg" viewBox="0 0 48 48"><defs><style>.i{fill:none;stroke:#fff;stroke-linecap:round;stroke-linejoin:round;}</style></defs><path id="c" class="i" d="M16.2144,5.5v1.3899h-2.5404l-1.4268,1.429v25.9874l1.2332,1.2332h21.0392l1.2332-1.2332V8.3189l-1.4268-1.429h-2.5405v-1.3899h-15.5711ZM15.2009,13.3802h17.5983v10.6012H15.2009v-10.6012Z"/><path id="d" class="i" d="M20.7339,28.4141h-5.3882v3.5342h5.3882v-3.5342Z"/><path id="e" class="i" d="M27.2655,28.4141h5.3882v3.5342h-5.3882v-3.5342Z"/><path id="f" class="i" d="M17.4417,37.4842l-1.8969,5.0158h3.5542l1.8969-5.0158h-3.5542Z"/><path id="g" class="i" d="M30.5577,37.4842l1.8969,5.0158h-3.5542l-1.8969-5.0158h3.5542Z"/><path id="h" class="i" d="M29.9097,8.1337h-11.8201"/></svg>
